!!!OTL: 33. Das deutsche Mädchen. / ["Vaterlandslied. Zum Singen fuer Johanna Elisabeth von Winthem."]
!!!COM: Gluck
!!!ODT: 1790
!!!ARE: Europa, Mitteleuropa, Deutschland
!!!SCT: B0033
!!!TXL: @@DE
!!!YEM: Copyright 1995, estate of Helmut Schaffrath.
**kern	**text
*ICvox	*
*Ivox	*
*M4/4	*
*met(c)	*
*clefG2	*
*k[f#]	*
*G:	*
!LO:TX:a:t=Mäßig.	!
{4g	Jch
4.b/	bin
8a	ein
=1	=1
4.cc	deut-
8b	-ſches
2a	Mäd-
=2	=2
4g	-chen!
8r}	.
{8b	Mein
4.g	Aug
8g	iſt
=3	=3
4.cc	blau
8cc	und
4.a	ſanft
8a	mein
=4	=4
4.dd	Blick.
8dd	Jch
4.b	hab
8b	ein
=5	=5
4ee	Herʒ,
4r}	.
{2dd	das
=6	=6
4.cc	e-
8dd	-del
4b/	iſt
4g	und
=7	=7
2a	ſtolʒ
2dd	und
=8	=8
4g;}	gut.
==	==
!!!AGN: politisch, national, Vaterlands - Lied
!!!GTL: Vaterlandslieder und Heimathgrüße
!!!ONB: ESAC (Essen Associative Code) Database: BOEHME
!!!AMT: simple quadruple
!!!AIN: vox
!!!EED: Helmut Schaffrath
!!!EEV: 1.0
!!@@COMMENT:"Text von Klopstock. Zuerst in dessen Oden. Hamburg 1771, S. 274. Die Melodie in
!! "Glucks Oden und Lieder von Klopstock." Dresden 1790. Das is kein volksttümliches Lied,
!! sondern nur Deklamation eines patriotischen Gedankens in gehobener Sprache nach einer absonderlichen,
!! gesuchten Versform, ohne End- und ohne Stabreim."
!!@@END:
!!Text: Klopstock
!!!URL-scan: https://archive.org/details/BoehmeVtLieder1895/page/n51/mode/2up
!!!ENC: Anna Maria Matuszewska
!!!EEV: 2024/14/06
*-	*-
